lib/brands/icons/microsoft-windows95.svg

<svg xmlns="http://www.w3.org/2000/svg" fill="none" aria-hidden="true" viewBox="0 0 48 48"><g id="microsoft-windows95-Icon"><g id="Group"><g id="Union"><path fill="#D97941" d="M7.16029 15.0729L6 15.6401V16.7234L7.16029 16.2075V15.0729Z"/><path fill="#D97941" d="M7.16029 18.6061L6 19.1474V20.2304L7.16029 19.7405V18.6061Z"/><path fill="#D97941" d="M8.55283 16.5173L10.0485 15.6147V17.2133L8.55283 18.0387V16.5173Z"/><path fill="#D97941" d="M8.55283 20.0243L10.0485 19.1217V20.7203L8.55283 21.5716V20.0243Z"/><path fill="#D97941" d="M17.5017 17.7292L20.4669 16.2334V19.1217L17.5017 20.6174V17.7292Z"/><path fill="#D97941" d="M17.5017 21.2362L20.4669 19.7405V22.629L17.5017 24.1247V21.2362Z"/><path fill="#D97941" d="M14.3041 17.6257L16.8311 16.4141V18.9669L14.3041 20.1791V17.6257Z"/><path fill="#D97941" d="M14.3041 21.133L16.8311 19.9468V22.4742L14.3041 23.6863V21.133Z"/><path fill="#D97941" d="M13.4011 18.6318L11.3379 19.56V17.7292L13.4011 16.7493V18.6318Z"/><path fill="#D97941" d="M13.4011 22.1388L11.3379 23.0673V21.2362L13.4011 20.2304V22.1388Z"/></g><g id="Union_2"><path fill="#4F89C8" d="M7.16029 25.9555L6 26.523V27.5801L7.16029 27.0645V25.9555Z"/><path fill="#4F89C8" d="M7.16029 29.4885L6 30.0557V31.1133L7.16029 30.5974V29.4885Z"/><path fill="#4F89C8" d="M8.55285 27.3992L10.0486 26.4968V28.07L8.55285 28.921V27.3992Z"/><path fill="#4F89C8" d="M8.55285 30.9067L10.0486 30.0043V31.603L8.55285 32.4537V30.9067Z"/><path fill="#4F89C8" d="M17.5017 28.5859L20.4669 27.0902V29.9784L17.5017 31.5V28.5859Z"/><path fill="#4F89C8" d="M17.5017 32.1193L20.4669 30.6229V33.5113L17.5017 35.033V32.1193Z"/><path fill="#4F89C8" d="M14.3041 28.5086L16.8311 27.2963V29.8496L14.3041 31.0614V28.5086Z"/><path fill="#4F89C8" d="M14.3041 32.0156L16.8311 30.8038V33.3568L14.3041 34.5428V32.0156Z"/><path fill="#4F89C8" d="M13.4011 29.4885L11.3379 30.4427V28.5859L13.4011 27.606V29.4885Z"/><path fill="#4F89C8" d="M13.4011 33.0217L11.3379 33.9759V32.1193L13.4011 31.1389V33.0217Z"/></g><g id="Union_3"><path fill="black" d="M24.825 36.4771V11.1532C30.3438 8.75488 36.0431 8.60012 42 11.437V36.5544C35.9915 33.6402 30.2406 33.3309 24.825 36.4771Z"/><path fill="black" d="M21.1119 16.1303V12.9325L24.3094 11.3854V14.4539L21.1119 16.1303Z"/><path fill="black" d="M21.1119 19.7923V16.5943L24.3094 15.0213V18.1159L21.1119 19.7923Z"/><path fill="black" d="M21.1119 23.4025V20.2047L24.3094 18.6577V21.752L21.1119 23.4025Z"/><path fill="black" d="M21.1119 27.0645V23.8667L24.3094 22.3192V25.3881L21.1119 27.0645Z"/><path fill="black" d="M21.1119 30.649V27.4769L24.3094 25.904V28.9983L21.1119 30.649Z"/><path fill="black" d="M21.1119 34.3883V31.1903L24.3094 29.6432V32.7378L21.1119 34.3883Z"/><path fill="black" d="M21.1119 38.0498V34.8521L24.3094 33.3048V36.3742L21.1119 38.0498Z"/><path fill="black" d="M20.4669 12.5455L17.5017 14.0414V16.9297L20.4669 15.434V12.5455Z"/><path fill="black" d="M17.5017 24.8982L20.4669 23.4025V26.2907L17.5017 27.8124V24.8982Z"/><path fill="black" d="M20.4669 34.2851L17.5017 35.7808V38.6684L20.4669 37.1731V34.2851Z"/><path fill="black" d="M16.8311 12.7262L14.3041 13.9124V16.4657L16.8311 15.2533V12.7262Z"/><path fill="black" d="M14.3041 24.795L16.8311 23.6088V26.1362L14.3041 27.3481V24.795Z"/><path fill="black" d="M16.8311 34.4656L14.3042 35.6515V38.2051L16.8311 36.9927V34.4656Z"/><path fill="black" d="M13.4011 14.9441L11.3379 15.8723V14.0415L13.4011 13.0616V14.9441Z"/><path fill="black" d="M11.3379 26.7291L13.4011 25.8006V23.9178L11.3379 24.8982V26.7291Z"/><path fill="black" d="M13.4011 36.683L11.3379 37.6112V35.7808L13.4011 34.8005V36.683Z"/><path fill="black" d="M10.0486 11.927L8.55285 12.8293V14.3507L10.0486 13.4999V11.927Z"/><path fill="black" d="M8.55285 23.6863L10.0486 22.7835V24.3823L8.55285 25.2334V23.6863Z"/><path fill="black" d="M10.0485 33.6661L8.55283 34.5687V36.0901L10.0485 35.265V33.6661Z"/><path fill="black" d="M7.16029 11.3854L6 11.9783V13.0357L7.16029 12.5201V11.3854Z"/><path fill="black" d="M6 22.8094L7.16029 22.2422V23.3766L6 23.8924V22.8094Z"/><path fill="black" d="M7.16029 33.1244L6 33.7177V34.7753L7.16029 34.2592V33.1244Z"/></g><path id="Vector" fill="#D97941" fill-rule="evenodd" d="M24.7993 14.6861C27.0688 13.6806 28.9254 13.1388 30.5506 13.0357V21.0301C28.6163 21.1846 26.7079 21.7779 24.7993 22.6546V14.6861Z" clip-rule="evenodd"/><path id="Vector_2" fill="#8ABE6C" fill-rule="evenodd" d="M32.7939 12.6746V20.8494H35.0634C36.069 20.8494 37.7194 21.365 38.4675 21.6488V13.5772C36.5848 12.778 34.6767 12.4941 32.7939 12.6746Z" clip-rule="evenodd"/><path id="Vector_3" fill="#F2CA30" fill-rule="evenodd" d="M32.7939 23.1961V31.0615C34.9862 30.9583 36.6623 31.2937 38.4673 31.8866V23.944C36.5848 23.1961 34.6767 22.9641 32.7939 23.1961V23.1961Z" clip-rule="evenodd"/><path id="Vector_4" fill="#4F89C8" fill-rule="evenodd" d="M24.7993 25.1561C26.914 24.1247 28.8224 23.6604 30.5506 23.5316V31.1644C28.5132 31.5257 26.5534 32.0677 24.7993 32.8923V25.1561Z" clip-rule="evenodd"/></g></g></svg>

<svg xmlns="http://www.w3.org/2000/svg" fill="none" aria-hidden="true" viewBox="0 0 48 48"><path fill="#D97941" d="M7.16 15.073 6 15.64v1.083l1.16-.515v-1.135Zm0 3.533L6 19.147v1.083l1.16-.49v-1.134Zm1.393-2.089 1.495-.902v1.598l-1.495.826v-1.522Zm0 3.507 1.495-.902v1.598l-1.495.852v-1.548Zm8.949-2.294 2.965-1.497v2.889l-2.965 1.495V17.73Zm0 3.506 2.965-1.495v2.888l-2.965 1.496v-2.889Zm-3.198-3.61 2.527-1.212v2.553l-2.527 1.212v-2.553Zm0 3.507 2.527-1.186v2.527l-2.527 1.212v-2.553Zm-.903-2.501-2.063.928v-1.83l2.063-.98v1.882Zm0 3.507-2.063.928v-1.83L13.4 20.23v1.909Z"/><path fill="#4F89C8" d="M7.16 25.956 6 26.523v1.057l1.16-.515v-1.11Zm0 3.532L6 30.056v1.057l1.16-.516v-1.109ZM8.553 27.4l1.496-.903v1.573l-1.496.851v-1.522Zm0 3.507 1.496-.903v1.599l-1.496.85v-1.546Zm8.949-2.321 2.965-1.496v2.888L17.502 31.5v-2.914Zm0 3.534 2.965-1.497v2.888l-2.965 1.522v-2.914Zm-3.198-3.611 2.527-1.213v2.554l-2.527 1.211V28.51Zm0 3.507 2.527-1.212v2.553l-2.527 1.186v-2.527Zm-.903-2.528-2.063.955v-1.857l2.063-.98v1.882Zm0 3.534-2.063.954v-1.857l2.063-.98v1.883Z"/><path fill="#000" d="M24.825 36.477V11.153C30.344 8.755 36.043 8.6 42 11.437v25.117c-6.008-2.914-11.76-3.223-17.175-.077ZM21.112 16.13v-3.197l3.197-1.548v3.069l-3.197 1.676Zm0 3.662v-3.198l3.197-1.573v3.095l-3.197 1.676Zm0 3.61v-3.197l3.197-1.547v3.094l-3.197 1.65Zm0 3.662v-3.197l3.197-1.548v3.07l-3.197 1.675Zm0 3.585v-3.172l3.197-1.573v3.094l-3.197 1.651Zm0 3.739V31.19l3.197-1.547v3.095l-3.197 1.65Zm0 3.662v-3.198l3.197-1.547v3.07l-3.197 1.675Zm-.645-25.504-2.965 1.495v2.889l2.965-1.496v-2.888Zm-2.965 12.352 2.965-1.495v2.888l-2.965 1.521v-2.914Zm2.965 9.387-2.965 1.496v2.887l2.965-1.495v-2.888Zm-3.636-21.559-2.527 1.186v2.554l2.527-1.213v-2.527Zm-2.527 12.069 2.527-1.186v2.527l-2.527 1.212v-2.553Zm2.527 9.671-2.527 1.185v2.554l2.527-1.212v-2.527Zm-3.43-19.522-2.063.928v-1.83l2.063-.98v1.882ZM11.338 26.73l2.063-.93v-1.882l-2.063.98v1.831Zm2.063 9.953-2.063.928v-1.83l2.063-.98v1.882Zm-3.352-24.756-1.496.902v1.522l1.496-.851v-1.573ZM8.553 23.686l1.496-.902v1.598l-1.496.851v-1.547Zm1.496 9.98-1.496.903v1.521l1.495-.825v-1.599ZM7.16 11.385 6 11.978v1.058l1.16-.516v-1.135ZM6 22.81l1.16-.568v1.135L6 23.892V22.81Zm1.16 10.314L6 33.718v1.057l1.16-.516v-1.135Z"/><path fill="#D97941" fill-rule="evenodd" d="M24.8 14.686c2.269-1.005 4.125-1.547 5.75-1.65v7.994c-1.934.155-3.842.748-5.75 1.625v-7.969Z" clip-rule="evenodd"/><path fill="#8ABE6C" fill-rule="evenodd" d="M32.794 12.675v8.174h2.27c1.005 0 2.655.516 3.404.8v-8.072c-1.883-.799-3.791-1.083-5.674-.902Z" clip-rule="evenodd"/><path fill="#F2CA30" fill-rule="evenodd" d="M32.794 23.196v7.865c2.192-.103 3.868.233 5.673.826v-7.943c-1.882-.748-3.79-.98-5.673-.748Z" clip-rule="evenodd"/><path fill="#4F89C8" fill-rule="evenodd" d="M24.8 25.156c2.114-1.031 4.022-1.496 5.75-1.624v7.632c-2.037.362-3.997.904-5.75 1.728v-7.736Z" clip-rule="evenodd"/></svg>
